svg/dotnetcore.svg

<svg viewBox="0 0 20 20" xmlns="http://www.w3.org/2000/svg">
<rect width="100%" height="100%" fill="#2D4C91"/>
<path d="M0 20V0L20 20H0Z" fill="#425D9C"/>
<path d="M8.13 6.81541V9.85746C8.12559 9.89056 8.12559 9.9241 8.13 9.9572C7.85 9.52832 7.58 9.09944 7.31 8.67056C6.56 7.45374 5.8 6.27681 5.05 5.08992C5.04124 5.06278 5.02376 5.03928 5.00026 5.02306C4.97676 5.00683 4.94855 4.99878 4.92 5.00015H4.12V10.815H4.79V5.85791C4.78664 5.8381 4.78664 5.81787 4.79 5.79807V5.85791C4.85 5.96762 4.9 6.08731 4.96 6.18705C5.94667 7.71639 6.93 9.2424 7.91 10.7651C7.9218 10.7835 7.93806 10.7986 7.95729 10.8091C7.97653 10.8196 7.9981 10.825 8.02 10.8249H8.79V5.00015H8.13V6.59598C8.13537 6.64237 8.13537 6.68922 8.13 6.73562C8.13841 6.76155 8.13841 6.78947 8.13 6.81541ZM10.32 9.0396V10.8449H13.42V10.1966H11V8.18184H13.09V7.56345H11V5.62851H13.24V5.00015H10.32V8.98973V9.0396ZM14.07 13.7972C14.0691 13.641 14.0314 13.4873 13.96 13.3483C13.9093 13.2332 13.827 13.1347 13.7226 13.0641C13.6182 12.9935 13.496 12.9538 13.37 12.9494C13.1907 12.9297 13.0097 12.9674 12.8533 13.057C12.6969 13.1467 12.5732 13.2836 12.5 13.4481C12.4162 13.6171 12.3727 13.8031 12.3727 13.9917C12.3727 14.1802 12.4162 14.3662 12.5 14.5352C12.553 14.6407 12.6306 14.732 12.7263 14.8015C12.822 14.8709 12.933 14.9164 13.05 14.9342C13.1796 14.9493 13.3104 14.9493 13.44 14.9342C13.5894 14.9228 13.7337 14.8749 13.86 14.7946V14.4754C13.6913 14.6141 13.4786 14.6883 13.26 14.6848C13.1864 14.6903 13.1125 14.6811 13.0425 14.658C12.9724 14.6348 12.9077 14.5981 12.8519 14.5499C12.7962 14.5017 12.7505 14.443 12.7176 14.3772C12.6846 14.3113 12.6651 14.2396 12.66 14.1662C12.6546 14.1198 12.6546 14.073 12.66 14.0266H14.01L14.07 13.7972ZM13.4 13.2286C13.4568 13.2404 13.5104 13.2643 13.557 13.2987C13.6036 13.3332 13.6422 13.3773 13.67 13.4281C13.7318 13.5336 13.7597 13.6554 13.75 13.7772H12.75C12.7504 13.6965 12.7683 13.6168 12.8025 13.5437C12.8368 13.4706 12.8865 13.4057 12.9483 13.3535C13.01 13.3014 13.0824 13.2632 13.1604 13.2417C13.2384 13.2201 13.3201 13.2157 13.4 13.2286ZM8.4 14.5352C8.16373 14.6493 7.90201 14.7008 7.64 14.6848C7.51138 14.6703 7.38748 14.628 7.27695 14.5608C7.16641 14.4936 7.0719 14.4032 7 14.2959C6.89933 14.1374 6.83463 13.9588 6.81044 13.7727C6.78626 13.5866 6.80317 13.3975 6.86 13.2187C6.90538 13.0401 6.99949 12.8775 7.13187 12.7489C7.26426 12.6204 7.42976 12.531 7.61 12.4906C7.88362 12.4333 8.16857 12.4684 8.42 12.5903H8.48V12.2911H8.4C8.21365 12.2266 8.01717 12.1962 7.82 12.2013C7.55693 12.1882 7.29614 12.2557 7.07268 12.3948C6.84923 12.5339 6.6738 12.7379 6.57 12.9793C6.4076 13.3299 6.38263 13.7284 6.5 14.0964C6.55806 14.3057 6.67213 14.4953 6.83 14.6449C7.03283 14.8326 7.29401 14.9452 7.57 14.9641C7.8467 14.9914 8.12576 14.9467 8.38 14.8345C8.38 14.8345 8.44 14.8345 8.44 14.7746V14.5253C8.433 14.524 8.42582 14.5242 8.41892 14.5259C8.41202 14.5277 8.40557 14.5308 8.4 14.5352V14.5352ZM10.68 13.6575C10.6556 13.505 10.5909 13.3617 10.4924 13.2425C10.394 13.1233 10.2654 13.0324 10.12 12.9793C9.97489 12.9492 9.82511 12.9492 9.68 12.9793C9.5115 12.9886 9.34901 13.045 9.21109 13.142C9.07317 13.239 8.96537 13.3727 8.9 13.5279C8.81045 13.7598 8.78962 14.0125 8.84 14.256C8.87801 14.4785 8.99959 14.6782 9.18 14.8145C9.38007 14.9569 9.6257 15.0208 9.87 14.994C10.0997 14.9721 10.3116 14.8611 10.46 14.6848C10.6351 14.4878 10.725 14.2296 10.71 13.9667C10.7072 13.8631 10.6972 13.7598 10.68 13.6575V13.6575ZM10.29 14.4255C10.2577 14.4857 10.2137 14.5388 10.1604 14.5816C10.1072 14.6245 10.0458 14.6562 9.98 14.6749C9.82879 14.7297 9.66197 14.7228 9.51588 14.6555C9.36979 14.5883 9.25625 14.4662 9.2 14.3158C9.14336 14.1834 9.1184 14.0397 9.12707 13.896C9.13575 13.7523 9.17784 13.6126 9.25 13.488C9.2983 13.4133 9.36218 13.3498 9.43729 13.302C9.51239 13.2541 9.59696 13.223 9.68522 13.2107C9.77349 13.1984 9.86337 13.2052 9.94876 13.2307C10.0341 13.2561 10.113 13.2997 10.18 13.3583C10.3134 13.4903 10.3889 13.6696 10.39 13.857C10.3949 13.8934 10.3949 13.9303 10.39 13.9667C10.4023 14.1261 10.3676 14.2856 10.29 14.4255ZM11.52 14.8245V13.9069C11.5165 13.7413 11.5617 13.5783 11.65 13.4381C11.6996 13.3578 11.7754 13.2971 11.8647 13.2662C11.954 13.2353 12.0512 13.2361 12.14 13.2685H12.2V12.9793C12.1023 12.9493 11.9977 12.9493 11.9 12.9793C11.8179 13.0075 11.7431 13.0534 11.6809 13.1137C11.6187 13.1741 11.5706 13.2474 11.54 13.3284V12.9793H11.2V14.8843H11.52V14.8245ZM2.46 9.98712C2.3388 9.98966 2.22328 10.0388 2.13756 10.1243C2.05184 10.2098 2.00255 10.325 2 10.4459C2 10.565 2.04741 10.6791 2.1318 10.7633C2.21619 10.8475 2.33065 10.8947 2.45 10.8947C2.50898 10.8975 2.5679 10.8881 2.62308 10.8672C2.67826 10.8462 2.72853 10.8142 2.77075 10.773C2.81297 10.7318 2.84623 10.6824 2.86847 10.6279C2.8907 10.5733 2.90144 10.5148 2.9 10.4559C2.90273 10.3359 2.85819 10.2196 2.77593 10.1319C2.69367 10.0443 2.58025 9.99231 2.46 9.98712ZM15.63 10.815H16.31V5.62851H18V5.00015H14V5.60856H15.67L15.63 10.815Z" fill="white"/>
</svg>

<svg xmlns="http://www.w3.org/2000/svg" viewBox="0 0 20 20">
  <rect width="100%" height="100%" fill="#2D4C91"/>
  <path fill="#425D9C" d="M0 20V0l20 20H0Z"/>
  <path fill="#fff" d="M8.13 6.82v3.14l-.82-1.29C6.56 7.45 5.8 6.27 5.05 5.1A.13.13 0 0 0 4.92 5h-.8v5.81h.67V5.8v.06l.17.33a4918.57 4918.57 0 0 1 3 4.62l.06.01h.77V5h-.66V6.82Zm2.19 2.22v1.8h3.1v-.64H11V8.18h2.09v-.62H11V5.63h2.24V5h-2.92v4.04Zm3.75 4.76a1 1 0 0 0-.11-.45.67.67 0 0 0-.59-.4.85.85 0 0 0-.87.5 1.22 1.22 0 0 0 0 1.09.74.74 0 0 0 .55.4h.39c.15-.02.3-.07.42-.15v-.31a.92.92 0 0 1-.6.2.56.56 0 0 1-.6-.51v-.14h1.35l.06-.23Zm-.67-.57a.4.4 0 0 1 .27.2c.06.1.09.23.08.35h-1a.56.56 0 0 1 .65-.55Zm-5 1.3c-.24.12-.5.17-.76.15A.9.9 0 0 1 7 14.3a1.28 1.28 0 0 1-.14-1.08 1 1 0 0 1 .75-.73c.27-.06.56-.02.81.1h.06v-.3H8.4c-.19-.06-.38-.1-.58-.09a1.3 1.3 0 0 0-1.25.78c-.16.35-.19.75-.07 1.12a1.2 1.2 0 0 0 1.07.86c.28.03.56-.01.81-.13 0 0 .06 0 .06-.06v-.24a.05.05 0 0 0-.04 0Zm2.28-.87a.87.87 0 0 0-.56-.68c-.15-.03-.3-.03-.44 0a.9.9 0 0 0-.78.55 1.3 1.3 0 0 0-.06.73c.04.22.16.42.34.55.2.15.45.21.69.18a.88.88 0 0 0 .59-.3 1 1 0 0 0 .25-.72c0-.1-.01-.21-.03-.31Zm-.39.77a.5.5 0 0 1-.31.24.61.61 0 0 1-.78-.35.93.93 0 0 1 .05-.83.62.62 0 0 1 .93-.13c.13.13.2.31.21.5v.1a.82.82 0 0 1-.1.47Zm1.23.4v-.92c0-.17.04-.33.13-.47a.41.41 0 0 1 .49-.17h.06v-.3a.51.51 0 0 0-.52.14.59.59 0 0 0-.14.22v-.35h-.34v1.9h.32v-.06ZM2.46 9.98a.47.47 0 0 0-.46.46.45.45 0 0 0 .45.44.43.43 0 0 0 .45-.43.46.46 0 0 0-.44-.47Zm13.17.82h.68V5.63H18V5h-4v.6h1.67l-.04 5.21Z"/>
</svg>
